svgs/sharp-light/fish-cooked.svg

<svg xmlns="http://www.w3.org/2000/svg" viewBox="0 0 576 512"><!--! Font Awesome Pro 7.1.0 by @fontawesome - https://fontawesome.com License - https://fontawesome.com/license (Commercial License) Copyright 2025 Fonticons, Inc. --><path fill="currentColor" d="M108.6 186.1l20.3 10.2 16.3-15.9c47.7-46.4 116-84.4 174.8-84.4 75.2 0 131.2 40.8 169.9 85.1 19.2 22 33.5 44.1 43 60.8 3.1 5.4 5.6 10.2 7.6 14.2-2 4-4.6 8.8-7.6 14.2-9.5 16.7-23.8 38.8-43 60.8-38.7 44.2-94.7 85.1-169.9 85.1-63 0-136.8-43.7-184-93.7L117.9 303c-8.9 5.6-35.8 22.8-80.7 51.4l25.6-89.6 2.5-8.8-2.5-8.8-28-98.1 73.8 36.9zM320 64C249.6 64 173.6 108.1 122.9 157.5 52.5 122.2 11.5 101.8 0 96l0 48 32 112-32 112 0 48c13.2-8.4 50.8-32.3 112.8-71.8 50.3 53.4 131.9 103.8 207.2 103.8 176 0 256-192 256-192S496 64 320 64zm-4.7 107.3l11.3-11.3-22.6-22.6-11.3 11.3-64 64-11.3 11.3 22.6 22.6 11.3-11.3 64-64zm112 16l11.3-11.3-22.6-22.6-11.3 11.3-160 160-11.3 11.3 22.6 22.6 11.3-11.3 160-160zm16 112l11.3-11.3-22.6-22.6-11.3 11.3-64 64-11.3 11.3 22.6 22.6 11.3-11.3 64-64z"/></svg>

<svg xmlns="http://www.w3.org/2000/svg" viewBox="0 0 576 512"><!--! Font Awesome Pro 6.7.2 by @fontawesome - https://fontawesome.com License - https://fontawesome.com/license (Commercial License) Copyright 2024 Fonticons, Inc. --><path d="M108.6 186.1l20.3 10.2 16.3-15.9C192.9 134 261.3 96 320 96c75.2 0 131.2 40.8 169.9 85.1c19.2 22 33.5 44.1 43 60.8c3.1 5.4 5.6 10.2 7.6 14.2c-2 4-4.6 8.8-7.6 14.2c-9.5 16.7-23.8 38.8-43 60.8C451.2 375.2 395.2 416 320 416c-63 0-136.8-43.7-184-93.7L117.9 303 95.6 317.2 37.2 354.4l25.6-89.6 2.5-8.8-2.5-8.8-28-98.1 73.8 36.9zM320 64c-70.4 0-146.4 44.1-197.1 93.5L32 112 0 96l0 35.8L0 144 32 256 0 368l0 10.1L0 416l32-20.4 80.8-51.4C163.1 397.6 244.7 448 320 448c176 0 256-192 256-192s-80-192-256-192zm-4.7 107.3L326.6 160 304 137.4l-11.3 11.3-64 64L217.4 224 240 246.6l11.3-11.3 64-64zm112 16L438.6 176 416 153.4l-11.3 11.3-160 160L233.4 336 256 358.6l11.3-11.3 160-160zm16 112L454.6 288 432 265.4l-11.3 11.3-64 64L345.4 352 368 374.6l11.3-11.3 64-64z"/></svg>
